svg/fluentui-system-icons/ic_fluent_battery_5_24_filled.svg

<svg width="24" height="24" viewBox="0 0 24 24" fill="none" xmlns="http://www.w3.org/2000/svg">
<path d="M17 6C18.6569 6 20 7.34315 20 9V10H21.0003C21.1824 10 21.3532 10.0487 21.5003 10.1338C21.7992 10.3067 22.0003 10.6299 22.0003 11V13C22.0003 13.3701 21.7992 13.6933 21.5003 13.8662C21.3532 13.9513 21.1824 14 21.0003 14H20V15C20 16.6569 18.6569 18 17 18H4.99963C3.34278 18 1.99963 16.6569 1.99963 15V9C1.99963 7.34315 3.34278 6 4.99963 6H17ZM11 9H5.99963C5.44735 9 4.99963 9.44772 4.99963 10V14C4.99963 14.5523 5.44735 15 5.99963 15H11C11.5523 15 12 14.5523 12 14V10C12 9.44772 11.5523 9 11 9Z" fill="#212121"/>
</svg>

<svg xmlns="http://www.w3.org/2000/svg" width="24" height="24"><path d="M17 6a3 3 0 0 1 3 3v1h1a1 1 0 0 1 1 1v2a1 1 0 0 1-1 1h-1v1a3 3 0 0 1-3 3H5a3 3 0 0 1-3-3V9a3 3 0 0 1 3-3h12Zm-6 3H6a1 1 0 0 0-1 1v4a1 1 0 0 0 1 1h5a1 1 0 0 0 1-1v-4a1 1 0 0 0-1-1Z"/></svg>
